!!!SOCIAL_FUNCTION:	songs with hunting dance
!!!PDT:	1956
!!!OTL: No_28_Cypress_Swamp_Hunting_Dance_Song_(c).krn
!!!LANG: Non-Tone
!!!LING_GROUP: Muskogean
!!!REG: Florida
**kern
*staff1
=1-
*clefF4
*k[b-]
*M2/4
4c\
8.c\L
16c\Jk
=2||
*M3/4
4d\
4c\
8.A\L
16G\Jk
=3||
*M2/4
2F\
=4
4C/
8C/
8r
=5
4F\
8.F\L
16F\Jk
=6
8.F\L
16c\Jk
12c\L
12G\
12F\J
=7
2F\
=8
4C/
8C/
8r
=9
8.B-\L
16A\Jk
8.G\L
16G\Jk
=10
4G\
4G\
=11||
*M3/4
4G\
4F\
12C/L
12C/
24AA/Jk
24r
=12
4G\
4F\
12C/L
12C/
24AA/Jk
24r
=13||
*M2/4
8F/L
8C/J
4F\
=14
4F\
4r
=15||
*M3/4
8F/L
8C/J
4F\
4F\
=16
12B-\L
12G\
12F\J
8G\L
8F\J
4F\
=17||
*M2/4
8G\L
8F\J
4F\
=18||
*M3/4
12B-\L
12G\
12F\J
8G\L
8F\J
8F\
8r
=19||
*M2/4
8F\L
8F\J
4F\
=20
8C/L
8C/J
4C/
=21
8F\L
8F\J
8F\
8r
=22
8F\L
8F\J
4F\
==
*-
